X:636
M:C
L:1/8
K:G Minor
f>c d/c/B/A/ BGG:|
d|~g>ag>d g>a ba/g/|f<ac<f A>F A/B/c/A/|g<a g>d g>a ba/g/|
f<a A/B/c/A/ B<G G>f|~g<a g>d g>a ba/g/|f<ad<f A<F d/c/B/A/|

